X: 1
P: Struan Robertson's Rant
O: Trad
R: strathspey
M: C
L: 1/8
K: EDor
|: e \
| "Em"E-<E G>A B>A B-<d | "D"D-<D F>E D/E/F/G/ A-<F \
| "Em"E-<E G>A B>A B-<e | "D"d>B d>F "Em"E-<E E :|
|: g \
| "Em"e>f g>e b>e g>e | "D"f>e d>f a/g/f/e/ d-<f \
| "Em"e>f g>e b>e g>e | "D"d>B A>F "Em"E-<E E :|

%%sep 1 1 500
%%sep 1 1 500

